X: 245
%
T: The Hurdle Race
C:James Fraser
O:Scotland
B:Keith Norman MacDonald : "The Skye collection of the best reels & strathspeys extant" : 1887
Z:Ralph Palmer
R:Reel
M:C
L:1/8
K:A
e | {/d}cA A/2A/2A A2 EA | A,CEA {/d}cAec | {/c}dB B/2B/2B B2 FB | B,DFB {/c}dBfd |
{/d}cA A/2A/2A TA2 EA | A,CEA {/d}cAed | {/c}defd fgaf | ec{/c}dB {cB}A2 A ||
!ff!e"*" | {/d}!f!u(c<A)(e<A) (E<A){/d}(c<A) | u(e<A){/d}(c<e) (f<e){/c}(d<c) | {/c}(d<B)(f<B) (F<B){/c}(d<B) | fB{/c}df bBed |
{/d}u(c<A)(e<A) (E<A){/d}(c<A) | (e<A){/d}(c<e) T(fe)dc | defd fgaf | ec{/c}dB {cB}A2 A |]
W:*Strong accent with an up bow should be placed on the a in the 2nd bar
W:of the 2nd part to give the tune a character.


